dist/svg/email-unread-o.svg

<!-- Generated by Trend Micro Style Portal -->
<svg version="1.1" xmlns="http://www.w3.org/2000/svg" width="16" height="16" viewBox="0 0 16 16">
  <title>email-unread-o</title>
  <path fill="rgb(34,34,34)" d="M13.5 5.89c1.38 0 2.5-1.12 2.5-2.5s-1.12-2.5-2.5-2.5-2.5 1.12-2.5 2.5 1.12 2.5 2.5 2.5zM1 2.39h9.15c-0.090 0.32-0.15 0.65-0.15 1h-9l7 4.75 3.16-2.15c0.27 0.25 0.59 0.45 0.93 0.6l-4.090 2.79-7-4.75v8.77h14v-6.84c0.37-0.18 0.71-0.42 1-0.71v7.55c0 0.28-0.1 0.52-0.3 0.72-0.19 0.19-0.42 0.28-0.7 0.28h-14c-0.28 0-0.52-0.090-0.72-0.28-0.19-0.2-0.28-0.44-0.28-0.72v-10.010c0-0.28 0.090-0.52 0.28-0.7 0.2-0.2 0.44-0.3 0.72-0.3z"></path>
</svg>

<svg width="16" height="16" viewBox="0 0 16 16" fill="rgb(34, 34, 34)" xmlns="http://www.w3.org/2000/svg"><title>email-unread-o</title><path d="M13.5 5.89C14.88 5.89 16 4.77 16 3.39C16 2.01 14.88 0.889999 13.5 0.889999C12.12 0.889999 11 2.01 11 3.39C11 4.77 12.12 5.89 13.5 5.89ZM1 2.39H10.15C10.06 2.71 10 3.04 10 3.39H1L8 8.14L11.16 5.99C11.43 6.24 11.75 6.44 12.09 6.59L8 9.38L1 4.63V13.4H15V6.56C15.37 6.38 15.71 6.14 16 5.85V13.4C16 13.68 15.9 13.92 15.7 14.12C15.51 14.31 15.28 14.4 15 14.4H1C0.72 14.4 0.48 14.31 0.28 14.12C0.09 13.92 0 13.68 0 13.4V3.39C0 3.11 0.09 2.87 0.28 2.69C0.48 2.49 0.72 2.39 1 2.39Z" fill="rgb(34, 34, 34)" fill-opacity="1.00"/></svg>
